X: 38349
T: Stage, The
R: hornpipe
M: 4/4
K: Gmajor
A|:BGFG (3EFG (3DB,A,|G,B,DB cBAE|A^GAB cBcB|(3AGF (3GFE (3DCB, (3CB,A,|
G,B,DB cBcd|~e3f ga (3gfe|db ca Bg Af|1 ecAF G2zA:|2 ecAF G2 (3def||
|:ga (3gfe dgbc|Bcac Bdgd|"1"(3gag (3gfg egfg|fgfe defd|
ga (3gfe dgbd|ceac Bdgd|(3gag (3fgf egfg|1 ecAF G2 (3def:|2 ecAF G3||
P: Variation
"1"BGDz (3cBA ag|

